uploads/exercises/back.svg

<svg width="300" height="300" viewBox="0 0 300 300" fill="none" xmlns="http://www.w3.org/2000/svg">
<path d="M237.999 59.998C240.208 59.998 241.999 58.2071 241.999 55.998C241.999 53.7888 240.208 51.998 237.999 51.998C235.79 51.998 233.999 53.7888 233.999 55.998C233.999 58.2071 235.79 59.998 237.999 59.998Z" fill="black"/>
<path d="M64.0042 235.17C63.2541 234.42 62.2368 233.999 61.1762 233.999C60.1155 233.999 59.0983 234.42 58.3482 235.17L55.1762 238.342L52.0042 235.17C51.6352 234.788 51.1938 234.483 50.7058 234.274C50.2178 234.064 49.6929 233.954 49.1618 233.949C48.6307 233.944 48.1039 234.046 47.6123 234.247C47.1208 234.448 46.6742 234.745 46.2986 235.12C45.923 235.496 45.626 235.943 45.4249 236.434C45.2238 236.926 45.1225 237.453 45.1272 237.984C45.1318 238.515 45.2421 239.04 45.4518 239.528C45.6614 240.016 45.9661 240.457 46.3482 240.826L49.5202 243.998L46.3482 247.17C45.9661 247.539 45.6614 247.98 45.4518 248.468C45.2421 248.956 45.1318 249.481 45.1272 250.012C45.1225 250.544 45.2238 251.07 45.4249 251.562C45.626 252.053 45.923 252.5 46.2986 252.876C46.6742 253.251 47.1208 253.548 47.6123 253.749C48.1039 253.95 48.6307 254.052 49.1618 254.047C49.6929 254.042 50.2178 253.932 50.7058 253.722C51.1938 253.513 51.6352 253.208 52.0042 252.826L55.1762 249.654L58.3482 252.826C59.1292 253.607 60.1532 253.998 61.1762 253.998C62.1992 253.998 63.2232 253.607 64.0042 252.826C64.754 252.076 65.1753 251.059 65.1753 249.998C65.1753 248.937 64.754 247.92 64.0042 247.17L60.8322 243.998L64.0042 240.826C64.754 240.076 65.1753 239.059 65.1753 237.998C65.1753 236.937 64.754 235.92 64.0042 235.17ZM269.715 98.512C261.742 78.586 229.535 76.293 221.68 76.032C205.956 60.601 193.889 54.77 189.212 52.911L185.891 39.065C185.642 38.034 184.995 37.1438 184.09 36.5898C183.186 36.0358 182.099 35.8632 181.067 36.11C180.556 36.2324 180.075 36.4542 179.65 36.7628C179.224 37.0713 178.864 37.4606 178.59 37.9084C178.315 38.3562 178.131 38.8537 178.049 39.3725C177.967 39.8913 177.988 40.4212 178.11 40.932L184.219 66.399C184.342 66.9101 184.564 67.392 184.872 67.8173C185.181 68.2425 185.571 68.6027 186.019 68.8773C186.467 69.1519 186.965 69.3356 187.484 69.4177C188.003 69.4998 188.533 69.4789 189.044 69.356C190.076 69.1082 190.967 68.4608 191.521 67.5562C192.076 66.6516 192.248 65.5638 192.001 64.532L191.614 62.921C197.337 66.038 206.33 71.985 217.173 82.827C217.923 83.577 218.939 83.997 219.997 83.999C229.821 84.011 256.563 87.177 262.286 101.485C262.681 102.469 263.45 103.257 264.424 103.674C265.399 104.092 266.499 104.106 267.484 103.713C268.47 103.319 269.258 102.55 269.676 101.574C270.095 100.599 270.109 99.4976 269.715 98.512ZM84.8282 82.826C94.8152 72.838 102.707 67.005 107.961 63.698L107.695 64.762C107.547 65.3519 107.536 65.9678 107.662 66.5629C107.788 67.1579 108.048 67.7163 108.422 68.1955C108.797 68.6747 109.276 69.0622 109.823 69.3283C110.37 69.5944 110.97 69.7321 111.578 69.731C112.47 69.7302 113.335 69.4315 114.037 68.8823C114.739 68.3331 115.238 67.565 115.453 66.7L121.879 40.968C122.007 40.4585 122.033 39.9287 121.956 39.4091C121.879 38.8894 121.7 38.3901 121.43 37.9396C121.16 37.4891 120.803 37.0964 120.381 36.7838C119.959 36.4712 119.479 36.245 118.969 36.118C116.817 35.567 114.653 36.886 114.121 39.03L110.61 53.089C106.296 55.079 95.6012 60.982 80.3202 76.03C72.2302 76.278 38.2852 78.52 30.2852 98.512C30.0429 99.1192 29.9529 99.7764 30.0232 100.426C30.0935 101.076 30.3218 101.699 30.6883 102.241C31.0547 102.782 31.5482 103.225 32.1255 103.532C32.7028 103.839 33.3464 103.999 34.0002 104C35.5862 104 37.0902 103.047 37.7152 101.484C43.4382 87.172 71.6252 84.009 82.0042 83.998C83.0635 83.9963 84.0789 83.5749 84.8282 82.826ZM89.7932 189.264C89.9682 188.741 90.0331 188.188 89.9838 187.639C89.9346 187.09 89.7722 186.557 89.507 186.073C89.2417 185.59 88.8793 185.167 88.4426 184.83C88.0058 184.494 87.5042 184.251 86.9692 184.118C83.2812 183.196 72.1722 179.397 69.5782 174.21C69.1595 173.371 68.4588 172.706 67.599 172.331C66.7391 171.956 65.7749 171.896 64.8752 172.161C63.9751 172.424 63.1962 172.996 62.6749 173.775C62.1535 174.555 61.9228 175.493 62.0232 176.425C62.1402 177.521 65.0312 203.489 76.4492 223.825L85.1762 240.968V260.009C85.1762 262.218 86.9652 264.009 89.1762 264.009C91.3872 264.009 93.1762 262.218 93.1762 260.009V240.009C93.1762 239.378 93.0282 238.757 92.7422 238.195L83.5042 220.054C77.2772 208.96 73.7232 195.765 71.8362 186.642C75.2502 188.581 78.8162 189.951 81.4022 190.808C80.4682 203.685 93.5312 217.187 95.1722 218.828C95.5411 219.21 95.9825 219.515 96.4705 219.724C96.9586 219.934 97.4834 220.044 98.0146 220.049C98.5457 220.054 99.0724 219.952 99.564 219.751C100.056 219.55 100.502 219.253 100.878 218.878C101.253 218.502 101.55 218.055 101.751 217.564C101.953 217.072 102.054 216.546 102.049 216.014C102.045 215.483 101.934 214.958 101.725 214.47C101.515 213.982 101.21 213.541 100.828 213.172C97.1332 209.473 87.1682 197.145 89.7932 189.264ZM239.383 172.244C238.459 171.907 237.443 171.921 236.529 172.283C235.614 172.645 234.865 173.331 234.422 174.209C232.274 178.506 220.727 182.566 213.215 184.076C212.659 184.188 212.133 184.417 211.672 184.747C211.211 185.078 210.825 185.502 210.539 185.992C210.255 186.483 210.079 187.028 210.022 187.592C209.965 188.156 210.028 188.725 210.207 189.263C212.836 197.15 203.129 209.195 199.168 213.171C198.42 213.922 198 214.94 198.001 216.001C198.003 217.061 198.425 218.078 199.176 218.827C199.547 219.198 199.988 219.493 200.473 219.694C200.958 219.895 201.478 219.998 202.003 219.998C202.528 219.998 203.047 219.894 203.532 219.693C204.017 219.492 204.457 219.197 204.828 218.825C206.461 217.194 219.375 203.843 218.613 191.038C221.863 190.204 226.425 188.823 230.703 186.796C227.781 195.976 223.074 208.966 216.937 219.901L205.777 237.899C205.383 238.531 205.175 239.261 205.175 240.006V260.006C205.175 262.215 206.964 264.006 209.175 264.006C211.386 264.006 213.175 262.215 213.175 260.006V241.145L223.823 223.965C235.182 203.727 241.612 178.041 241.882 176.957C242.118 176.002 241.994 174.993 241.533 174.123C241.072 173.254 240.307 172.585 239.383 172.244ZM149.176 177.998C146.965 177.998 145.176 179.789 145.176 181.998V237.998C145.176 240.207 146.965 241.998 149.176 241.998C151.387 241.998 153.176 240.207 153.176 237.998V181.998C153.176 179.789 151.387 177.998 149.176 177.998ZM149.176 157.998C142.559 157.998 137.176 163.381 137.176 169.998C137.176 172.207 138.965 173.998 141.176 173.998C143.387 173.998 145.176 172.207 145.176 169.998C145.176 167.793 146.969 165.998 149.176 165.998C151.383 165.998 153.176 167.793 153.176 169.998C153.176 172.207 154.965 173.998 157.176 173.998C159.387 173.998 161.176 172.207 161.176 169.998C161.176 163.381 155.793 157.998 149.176 157.998ZM149.176 137.998C142.559 137.998 137.176 143.381 137.176 149.998C137.176 152.207 138.965 153.998 141.176 153.998C143.387 153.998 145.176 152.207 145.176 149.998C145.176 147.793 146.969 145.998 149.176 145.998C151.383 145.998 153.176 147.793 153.176 149.998C153.176 152.207 154.965 153.998 157.176 153.998C159.387 153.998 161.176 152.207 161.176 149.998C161.176 143.381 155.793 137.998 149.176 137.998ZM149.176 117.998C142.559 117.998 137.176 123.381 137.176 129.998C137.176 132.207 138.965 133.998 141.176 133.998C143.387 133.998 145.176 132.207 145.176 129.998C145.176 127.793 146.969 125.998 149.176 125.998C151.383 125.998 153.176 127.793 153.176 129.998C153.176 132.207 154.965 133.998 157.176 133.998C159.387 133.998 161.176 132.207 161.176 129.998C161.176 123.381 155.793 117.998 149.176 117.998ZM149.176 81.998C151.387 81.998 153.176 80.207 153.176 77.998V65.998C153.176 63.789 151.387 61.998 149.176 61.998C146.965 61.998 145.176 63.789 145.176 65.998V77.998C145.176 80.207 146.965 81.998 149.176 81.998Z" fill="#111214"/>
<path d="M188.461 114.908C161.402 118.377 153.367 90.14 153.035 88.945C152.804 88.1003 152.302 87.3548 151.606 86.8231C150.91 86.2914 150.059 86.003 149.183 86.002H149.175C148.3 86.0029 147.449 86.2904 146.753 86.8206C146.057 87.3509 145.553 88.0946 145.32 88.938C144.984 90.143 136.879 118.381 109.89 114.909C107.699 114.616 105.695 116.177 105.41 118.362C105.275 119.414 105.563 120.477 106.212 121.317C106.86 122.157 107.815 122.706 108.867 122.842C129.953 125.576 142.851 112.444 149.176 100.58C154.93 111.375 166.145 123.205 183.977 123.205C185.747 123.205 187.582 123.088 189.485 122.842C190.537 122.706 191.492 122.157 192.14 121.317C192.789 120.477 193.077 119.414 192.942 118.362C192.656 116.174 190.645 114.598 188.461 114.908Z" fill="#111214"/>
</svg>

<svg xmlns="http://www.w3.org/2000/svg" viewBox="0 0 300 300">
  <defs/>
  <circle cx="237.999" cy="55.998" r="4"/>
  <path d="M64.004 235.17a4 4 0 00-5.656 0l-3.172 3.172-3.172-3.172a4 4 0 10-5.656 5.656l3.172 3.172-3.172 3.172a4 4 0 105.656 5.656l3.172-3.172 3.172 3.172c.781.781 1.805 1.172 2.828 1.172s2.047-.391 2.828-1.172a4 4 0 000-5.656l-3.172-3.172 3.172-3.172a4 4 0 000-5.656zM269.715 98.512c-7.973-19.926-40.18-22.219-48.035-22.48-15.724-15.431-27.791-21.262-32.468-23.121l-3.321-13.846a4.004 4.004 0 00-4.824-2.955 3.999 3.999 0 00-2.957 4.822l6.109 25.467a4 4 0 004.825 2.957 4.002 4.002 0 002.957-4.824l-.387-1.611c5.723 3.117 14.716 9.064 25.559 19.906.75.75 1.766 1.17 2.824 1.172 9.824.012 36.566 3.178 42.289 17.486a4.002 4.002 0 005.198 2.228 4.003 4.003 0 002.231-5.201zM84.828 82.826c9.987-9.988 17.879-15.821 23.133-19.128l-.266 1.064a3.996 3.996 0 003.883 4.969 3.997 3.997 0 003.875-3.031l6.426-25.732a3.996 3.996 0 00-2.91-4.85c-2.152-.551-4.316.768-4.848 2.912l-3.511 14.059c-4.314 1.99-15.009 7.893-30.29 22.941-8.09.248-42.035 2.49-50.035 22.482A4.004 4.004 0 0034 104c1.586 0 3.09-.953 3.715-2.516 5.723-14.312 33.91-17.475 44.289-17.486a4.004 4.004 0 002.824-1.172zM89.793 189.264a3.996 3.996 0 00-2.824-5.146c-3.688-.922-14.797-4.721-17.391-9.908a3.995 3.995 0 00-4.703-2.049 3.997 3.997 0 00-2.852 4.264c.117 1.096 3.008 27.064 14.426 47.4l8.727 17.143v19.041c0 2.209 1.789 4 4 4s4-1.791 4-4v-20c0-.631-.148-1.252-.434-1.814l-9.238-18.141c-6.227-11.094-9.781-24.289-11.668-33.412 3.414 1.939 6.98 3.309 9.566 4.166-.934 12.877 12.129 26.379 13.77 28.02a4 4 0 105.656-5.656c-3.695-3.699-13.66-16.027-11.035-23.908zM239.383 172.244a4.014 4.014 0 00-4.961 1.965c-2.148 4.297-13.695 8.357-21.207 9.867a4.016 4.016 0 00-2.676 1.916 4.002 4.002 0 00-.332 3.271c2.629 7.887-7.078 19.932-11.039 23.908a4.001 4.001 0 00.008 5.656 3.993 3.993 0 005.652-.002c1.633-1.631 14.547-14.982 13.785-27.787 3.25-.834 7.812-2.215 12.09-4.242-2.922 9.18-7.629 22.17-13.766 33.105l-11.16 17.998a3.978 3.978 0 00-.602 2.107v20c0 2.209 1.789 4 4 4s4-1.791 4-4v-18.861l10.648-17.18c11.359-20.238 17.789-45.924 18.059-47.008a4 4 0 00-2.499-4.713zM149.176 177.998c-2.211 0-4 1.791-4 4v56c0 2.209 1.789 4 4 4s4-1.791 4-4v-56c0-2.209-1.789-4-4-4zM149.176 157.998c-6.617 0-12 5.383-12 12 0 2.209 1.789 4 4 4s4-1.791 4-4c0-2.205 1.793-4 4-4s4 1.795 4 4c0 2.209 1.789 4 4 4s4-1.791 4-4c0-6.617-5.383-12-12-12zM149.176 137.998c-6.617 0-12 5.383-12 12 0 2.209 1.789 4 4 4s4-1.791 4-4c0-2.205 1.793-4 4-4s4 1.795 4 4c0 2.209 1.789 4 4 4s4-1.791 4-4c0-6.617-5.383-12-12-12zM149.176 117.998c-6.617 0-12 5.383-12 12 0 2.209 1.789 4 4 4s4-1.791 4-4c0-2.205 1.793-4 4-4s4 1.795 4 4c0 2.209 1.789 4 4 4s4-1.791 4-4c0-6.617-5.383-12-12-12zM149.176 81.998c2.211 0 4-1.791 4-4v-12c0-2.209-1.789-4-4-4s-4 1.791-4 4v12c0 2.209 1.789 4 4 4z" fill="#f1e8e8"/>
  <path d="M188.461 114.908c-27.059 3.469-35.094-24.768-35.426-25.963a3.998 3.998 0 00-3.852-2.943h-.008a4.004 4.004 0 00-3.855 2.936c-.336 1.205-8.441 29.443-35.43 25.971-2.191-.293-4.195 1.268-4.48 3.453a4.004 4.004 0 003.457 4.48c21.086 2.734 33.984-10.398 40.309-22.262 5.754 10.795 16.969 22.625 34.801 22.625 1.77 0 3.605-.117 5.508-.363a4.004 4.004 0 003.457-4.48c-.286-2.188-2.297-3.764-4.481-3.454z" fill="#f1e8e8"/>
</svg>
